icons/sourcetrail.svg

<?xml version="1.0" encoding="UTF-8"?>
<svg width="256px" height="247px" viewBox="0 0 256 247" version="1.1" xmlns="http://www.w3.org/2000/svg" xmlns:xlink="http://www.w3.org/1999/xlink" preserveAspectRatio="xMidYMid">
    <g>
        <path d="M55.2156796,246.742359 L32.426014,246.742359 C32.426014,226.897142 44.0216546,209.771059 60.8031821,201.751186 C55.3919808,209.722777 52.2258757,219.343259 52.2258757,229.704792 C52.2258757,235.689521 53.282951,241.424794 55.2156796,246.742359 Z M181.010566,246.742359 L158.220901,246.742359 C158.220901,226.897142 169.816541,209.771059 186.600995,201.751186 C181.189794,209.722777 178.020762,219.343259 178.020762,229.704792 C178.020762,235.689521 179.081495,241.424794 181.010566,246.742359 Z M245.98156,233.018668 C239.936845,212.300724 221.134072,196.899612 198.463648,196.899612 C170.938724,196.899612 148.62017,219.212314 148.62017,246.737238 L122.619044,246.737238 C122.616117,219.212314 100.301221,196.899612 72.7762973,196.899612 C45.2521048,196.899612 22.933551,219.212314 22.933551,246.737238 L1.84544748,246.737238 C0.637674944,239.669098 0.00123514517,232.412953 0.00123514517,225.001721 C0.00123514517,196.28585 9.45931579,169.772646 25.4259078,148.415336 C14.5354718,140.349376 6.12276185,128.756661 2.14464734,114.695 C-6.32146506,84.8028121 11.0313952,53.7569861 40.9177304,45.2996522 C48.0085476,43.293038 52.4906931,35.9293564 50.4811528,28.8414653 C48.4745385,21.7506481 40.7443554,17.6357356 33.6564643,19.6423498 C28.5751875,21.0798259 23.2861533,18.1302567 21.8508718,13.0460537 C20.409738,7.96185068 23.3571127,2.67866881 28.4442418,1.23753501 C45.7093173,-3.6476891 63.6422889,6.36416732 68.527513,23.6292428 C73.4156633,40.8913922 63.3950284,58.8214376 46.1299528,63.7103194 C31.1867853,67.9393521 22.5099894,83.4597047 26.7390221,98.4050669 C30.1326362,110.386961 38.6470302,119.518043 49.2309509,124.10553 C70.9489104,107.124292 98.2953386,97.0012416 127.99952,97.0012416 C151.201774,97.0012416 172.959969,103.173976 191.725433,113.964923 C193.205338,99.7094027 201.351036,87.1759279 213.341708,80.4633169 C213.667975,81.7932566 213.949618,83.1488002 214.162496,84.5299477 C215.719945,94.6734814 213.793068,104.50099 209.345305,112.756419 C211.991285,111.750551 214.759433,110.977313 217.66072,110.534 C227.764751,108.979478 237.603964,111.292607 245.77746,116.40534 C239.805899,122.228398 232.118877,126.289909 223.368195,127.637405 C219.199149,128.276771 215.077652,128.248241 211.099538,127.648378 C238.57618,151.123497 256,186.028928 256,225.001721 C256,227.607467 255.926114,230.216138 255.770296,232.780186 C255.645203,235.704152 253.905601,237.600303 251.313755,237.73637 C248.715325,237.870241 247.198111,236.252807 245.98156,233.018668 Z M207.139712,160.928327 C207.139712,155.886554 203.056256,151.79944 198.01375,151.79944 C192.974903,151.79944 188.884863,155.886554 188.884863,160.928327 C188.884863,165.967907 192.974903,170.057215 198.01375,170.057215 C203.056256,170.056484 207.139712,165.967907 207.139712,160.928327 Z" fill="#027AC3" fill-rule="nonzero"></path>
    </g>
</svg>

<svg xmlns="http://www.w3.org/2000/svg" viewBox="0 0 256 246.742">
  <path fill="#027ac3" d="M55.216 246.742h-22.79c0-19.845 11.596-36.97 28.377-44.99a49.602 49.602 0 0 0-8.577 27.953 49.77 49.77 0 0 0 2.99 17.037zm125.795 0h-22.79c0-19.845 11.596-36.97 28.38-44.99a49.605 49.605 0 0 0-8.58 27.953c0 5.985 1.06 11.72 2.99 17.037zm64.97-13.723c-6.044-20.718-24.847-36.12-47.517-36.12-27.525 0-49.844 22.313-49.844 49.838H122.62c-.003-27.525-22.318-49.837-49.843-49.837-27.524 0-49.842 22.312-49.842 49.837H1.845a128.918 128.918 0 0 1-1.844-21.735c0-28.716 9.458-55.23 25.425-76.587-10.89-8.066-19.303-19.658-23.281-33.72C-6.321 84.803 11.03 53.757 40.918 45.3c7.09-2.007 11.573-9.37 9.563-16.459-2.006-7.09-9.737-11.205-16.825-9.199-5.08 1.438-10.37-1.512-11.805-6.596a9.557 9.557 0 0 1 6.593-11.808C45.71-3.648 63.642 6.364 68.528 23.629c4.888 17.262-5.133 35.192-22.398 40.081-14.943 4.23-23.62 19.75-19.391 34.695 3.394 11.982 11.908 21.113 22.492 25.7C70.949 107.126 98.295 97.002 128 97.002c23.202 0 44.96 6.173 63.725 16.964 1.48-14.256 9.626-26.79 21.617-33.502.326 1.33.608 2.686.82 4.067 1.558 10.143-.369 19.971-4.817 28.226 2.646-1.005 5.414-1.779 8.316-2.222 10.104-1.555 19.943.759 28.116 5.871-5.971 5.823-13.658 9.885-22.409 11.232-4.169.64-8.29.611-12.268.011 27.476 23.476 44.9 58.38 44.9 97.354 0 2.605-.074 5.214-.23 7.778-.125 2.924-1.864 4.82-4.456 4.956-2.599.134-4.116-1.483-5.332-4.717zm-38.841-72.09c0-5.042-4.084-9.13-9.126-9.13-5.04 0-9.13 4.088-9.13 9.13 0 5.039 4.09 9.128 9.13 9.128 5.042 0 9.126-4.09 9.126-9.129z"/>
</svg>
